X:225
T: Xiashui bannao haozi
N: C1713E
O: China, Sichuan, chongqing
S: Hanzu minge gailun, 82(2)]
R: Haozi, Chuanjiang chuanfu haozi]
M: 2/4
L: 1/32
K: A
a6f2c4f2e2 | c2e2c2e2fec2z4
F4e2cef4c2e2c2 | B2c2A2F2e4z4
c6a2c2c6 | c2e2f2e2c2e2z4
F2a4f2c2c4e2 | c2e2c2B2f2c6
F8a2f2ef3 | a2f6a2f2efe2 | c2e2B4
c6B2 | A2F2z4
c6B2 | A2F2z4
c6B2 | A2F6
B2A2F4 | F8z8

